X: 1
T: THE BOTTLE OF BRANDY -- JIG
B: Ryan's Mammoth Collection of Fiddle Tunes
R: jig
M: 6/8
L: 1/8
Z: Contributed 20000830141436 by John Chambers John.Chambers:weema.com
K: G
vd/c/ \
| BGG AGA | BGA GED | EAA A2G | EAA A2c \
| BGG AGA | BGA GED | EGG G2E | DEF G2 :|
|: uc \
| Bcd ABc | BGA GED | EAA A2G | EAA A2c \
| Bcd ABc | BGA GED | DEG Bcd | AGF G2 :|
